svg/group.svg

<?xml version="1.0" encoding="UTF-8"?>
<svg xmlns="http://www.w3.org/2000/svg" xmlns:xlink="http://www.w3.org/1999/xlink" width="32" height="32" viewBox="0 0 32 32">
<path fill-rule="nonzero" fill="rgb(0%, 0%, 0%)" fill-opacity="1" d="M 10.878906 1.28125 C 9.113281 1.28125 7.679688 2.714844 7.679688 4.480469 C 7.679688 6.246094 9.113281 7.679688 10.878906 7.679688 C 12.035156 7.699219 13.113281 7.09375 13.699219 6.097656 C 14.28125 5.097656 14.28125 3.863281 13.699219 2.863281 C 13.113281 1.867188 12.035156 1.261719 10.878906 1.28125 M 21 1.28125 C 19.234375 1.28125 17.800781 2.714844 17.800781 4.480469 C 17.800781 6.246094 19.234375 7.679688 21 7.679688 C 22.765625 7.679688 24.199219 6.246094 24.199219 4.480469 C 24.199219 2.714844 22.765625 1.28125 21 1.28125 M 10.878906 8.320312 C 10.199219 8.316406 9.527344 8.476562 8.921875 8.78125 C 10.15625 9.738281 10.886719 11.210938 10.898438 12.773438 C 10.914062 14.335938 10.214844 15.820312 9 16.800781 C 9.933594 17.28125 10.746094 17.964844 11.378906 18.800781 C 11.066406 18.132812 10.902344 17.402344 10.898438 16.660156 C 10.90625 14.152344 12.722656 12.011719 15.199219 11.601562 C 14.671875 9.652344 12.898438 8.304688 10.878906 8.320312 M 21 8.320312 C 18.988281 8.304688 17.214844 9.640625 16.679688 11.582031 C 19.1875 11.910156 21.140625 14.0625 21.140625 16.660156 C 21.140625 17.355469 20.996094 18.042969 20.71875 18.679688 C 21.34375 17.890625 22.125 17.242188 23.019531 16.78125 C 21.828125 15.808594 21.140625 14.355469 21.140625 12.820312 C 21.136719 11.273438 21.835938 9.808594 23.039062 8.839844 C 22.414062 8.5 21.710938 8.320312 21 8.320312 M 5.777344 8.980469 C 3.65625 8.980469 1.9375 10.703125 1.9375 12.824219 C 1.9375 14.945312 3.660156 16.664062 5.78125 16.664062 C 7.867188 16.617188 9.535156 14.910156 9.535156 12.820312 C 9.535156 10.730469 7.863281 9.027344 5.777344 8.980469 M 26.257812 8.980469 C 24.136719 8.980469 22.417969 10.699219 22.417969 12.820312 C 22.417969 14.941406 24.136719 16.660156 26.257812 16.660156 C 28.378906 16.660156 30.097656 14.941406 30.097656 12.820312 C 30.097656 10.699219 28.378906 8.980469 26.257812 8.980469 M 16.019531 12.820312 C 13.898438 12.785156 12.152344 14.476562 12.117188 16.597656 C 12.082031 18.71875 13.773438 20.464844 15.894531 20.5 C 18.015625 20.535156 19.761719 18.84375 19.796875 16.722656 C 19.832031 14.601562 18.140625 12.855469 16.019531 12.820312 M 5.761719 17.28125 C 2.582031 17.285156 0.00390625 19.859375 0 23.039062 L 0 25.28125 C 0 25.480469 0.0976562 25.679688 0.261719 25.800781 C 0.40625 25.914062 1.820312 26.878906 5.761719 26.878906 C 7.125 26.878906 8.1875 26.757812 9 26.601562 C 9.074219 24.699219 9.921875 22.910156 11.339844 21.640625 C 10.699219 19.082031 8.402344 17.285156 5.761719 17.28125 M 26.238281 17.28125 C 23.605469 17.285156 21.308594 19.070312 20.660156 21.621094 C 22.105469 22.890625 22.964844 24.699219 23.039062 26.621094 C 23.847656 26.773438 24.894531 26.878906 26.238281 26.878906 C 30.179688 26.878906 31.59375 25.914062 31.738281 25.800781 C 31.902344 25.679688 32 25.488281 32 25.28125 L 32 23.039062 C 31.996094 19.859375 29.417969 17.285156 26.238281 17.28125 M 16.019531 21.140625 C 12.84375 21.148438 10.269531 23.722656 10.261719 26.898438 L 10.261719 29.140625 C 10.261719 29.339844 10.359375 29.527344 10.519531 29.640625 C 10.667969 29.753906 12.078125 30.738281 16.019531 30.738281 C 19.960938 30.738281 21.371094 29.753906 21.519531 29.640625 C 21.683594 29.527344 21.777344 29.339844 21.78125 29.140625 L 21.78125 26.898438 C 21.777344 23.71875 19.199219 21.144531 16.019531 21.140625 "/>
</svg>

<svg role="img" viewBox="0 0 32 32" height="32" width="32" xmlns="http://www.w3.org/2000/svg"><path d="M10.879 1.281a3.2 3.2 0 0 0-3.2 3.2 3.2 3.2 0 0 0 3.2 3.199 3.21 3.21 0 0 0 2.82-1.582c.582-1 .582-2.235 0-3.235a3.21 3.21 0 0 0-2.82-1.582m10.121 0a3.2 3.2 0 0 0-3.2 3.2A3.2 3.2 0 0 0 21 7.68a3.2 3.2 0 0 0 3.2-3.2A3.2 3.2 0 0 0 21 1.281m-10.121 7.04a4.305 4.305 0 0 0-1.957.46 5.104 5.104 0 0 1 1.976 3.992A5.11 5.11 0 0 1 9 16.801a7.002 7.002 0 0 1 2.379 2 5.115 5.115 0 0 1-.48-2.14 5.144 5.144 0 0 1 4.3-5.06 4.439 4.439 0 0 0-4.32-3.28M21 8.32a4.444 4.444 0 0 0-4.32 3.261c2.508.328 4.46 2.48 4.46 5.078 0 .695-.144 1.383-.421 2.02a7.064 7.064 0 0 1 2.3-1.899 5.11 5.11 0 0 1-1.878-3.96 5.095 5.095 0 0 1 1.898-3.981A4.276 4.276 0 0 0 21 8.32m-15.223.66a3.843 3.843 0 0 0 .004 7.684 3.843 3.843 0 0 0-.004-7.684m20.48 0a3.84 3.84 0 1 0 0 7.68 3.84 3.84 0 0 0 0-7.68M16.02 12.82a3.84 3.84 0 1 0-.125 7.68 3.84 3.84 0 1 0 .125-7.68M5.762 17.281A5.767 5.767 0 0 0 0 23.04v2.242c0 .2.098.399.262.52.144.113 1.558 1.078 5.5 1.078 1.363 0 2.426-.121 3.238-.277a7.03 7.03 0 0 1 2.34-4.961 5.758 5.758 0 0 0-5.578-4.36m20.476 0a5.762 5.762 0 0 0-5.578 4.34 7.015 7.015 0 0 1 2.38 5c.808.152 1.855.258 3.198.258 3.942 0 5.356-.965 5.5-1.078a.644.644 0 0 0 .262-.52V23.04a5.767 5.767 0 0 0-5.762-5.758m-10.218 3.86a5.773 5.773 0 0 0-5.758 5.757v2.243c0 .199.097.386.258.5.148.113 1.558 1.097 5.5 1.097 3.94 0 5.351-.984 5.5-1.097a.618.618 0 0 0 .261-.5v-2.243a5.767 5.767 0 0 0-5.761-5.757"/></svg>
